!!!!SEGMENT: d-b--slg-bohn-ms-mus-111--020_jarzebski-adam--canzoni-e-concerti-20-konisberga.krn
!!!cenid: 16xx:1793
!!!COM: Jarzębski, Adam
!!!COM-rismID: pe30017782
!!!CDT:
!!!CNT:
!!!GTL: Canzoni e Concerti
!!!OTL: 20. Könisberga
!!!PDT: 1627
!!!AGN:
!!!SMS-siglum: D-B
!!!SMS-shelfmark: Slg Bohn Ms.mus. 111
!!!SMS-shelfwork: 020 G
!!!SMS-variant:
!!!SMS-altvar:
!!!NIFC-rismSourceID: 1001062014
!!!NIFC-rismChildID: 1001062014
!!!NIFC-islandoraID:
!!!URL-pdf-islandora:
!!!URL-scan: https://digital.staatsbibliothek-berlin.de/werkansicht/?PPN=PPN1049147219
!!!ONB-nifc: UWAGA: Prima vox: s. 33, Seconda vox: s. 93, Bassus sive Vox Tertia: s. 131, Basso continuo: s. 178. Uwaga: proszę wpisywać partie tylko występujące w danym koncercie i nazywać partie wg określeń podawanych przy danym utworze. Kody instr. dla humdrumowców podane zostaną na forum.
!!!AIN: 3 vox
!!!key: d
**kern	**kern	**kern	**kern
*part4	*part3	*part2	*part1
*staff4	*staff3	*staff2	*staff1
*I"Baſso Continuo	*I"Tertia Vox.	*I"Seconda Vox	*I"Prima Vox
*I'bc	*I'V 3	*I'V 2	*I'V 1
*	*ICvox	*ICvox	*ICvox
*	*Ivox	*Ivox	*Ivox
*IGcont	*	*	*
*clefF4	*clefF4	*clefF4	*clefF4
*k[]	*k[]	*k[]	*k[]
*d:	*d:	*d:	*d:
*M2/1	*M2/1	*M2/1	*M2/1
*met(C|)	*met(C|)	*met(C|)	*met(C|)
=1-	=1-	=1-	=1-
!!LO:TX:t=P:problem: all\right or middle	!	!	!
1D	1D	1F	2r
*	*	*2\right	*2\right
.	.	.	2A\
2D/	2D/	2F\	2.A\
!LO:TX:t=P:problem:kreska pseudotaktowa	!	!	!
2D/	2D/	2F\	.
.	.	.	4B\
=2-	=2-	=2-	=2-
2.AA/	2.AA/	2E\	2.c\
.	.	4C/	.
4BB/	4BB/	4D/	8B\L
.	.	.	8A\J
!LO:TX:t=P:problem:kreska pseudotaktowa	!	!	!
1C	1C	4E\	2.G\
.	.	4D/	.
.	.	4E\	.
.	.	4F\	4A\
=3-	=3-	=3-	=3-
2.GG/	2.GG/	2G\	4B\
.	.	.	4A\
.	.	2.D/	4B\
4AA/	4AA/	.	4c\
4BB/	4BB/	.	1d
4C/	4C/	4E\	.
1D\	1D\	2F\	.
=4-	=4-	=4-	=4-
.	.	1E	2.A\
!LO:TX:t=P:problem:kreska pseudotaktowa	!	!	!
2C#X/	2C#X/	.	.
.	.	.	4G\
2D/	2D/	4D/	4F\
.	.	4E\	4G\
1D\	1D\	4F\	2A\
.	.	4G\	.
=5-	=5-	=5-	=5-
.	.	2.E\	2r
4Cny/	4Cny/	.	2.A\
4BB/	4BB/	4D/	.
0AA	0AA	2C#X/	.
.	.	.	4G\
*	*	*custos:D	*
!	!	!LO:LB:g=original	!
.	.	1D	2F\
=6-	=6-	=6-	=6-
!LO:TX:t=P:problem:kreska pseudotaktowa	!	!	!
.	.	.	2E\
.	.	2C#X/	4r
.	.	.	4A\
2DD/	2DD/	1D	4F\
.	.	.	4D/
*	*	*	*custos:F
!	!	!	!LO:LB:g=original
2.D/	2.DD/	.	4F\
.	.	.	4G\
=7-	=7-	=7-	=7-
.	.	1r	2A\
4E\	4EE/	.	.
4F\	4FF/	.	2F\
!LO:TX:t=P:problem:kreska pseudotaktowa	!	!	!
4G\	4GG/	.	.
*	*custos:AA	*	*
!	!LO:LB:g=original	!	!
2A\	1AA	2r	4.E\
.	.	.	8F\
2AA/	.	4r	2E\
.	.	4A\	.
=8-	=8-	=8-	=8-
2DD/	1DD	4F\	1D
.	.	4D/	.
2.DD/	.	4F\	.
.	.	4G\	.
.	1r	2A\	00r
4EE/	.	.	.
4FF/	.	2F\	.
4GG/	.	.	.
=9-	=9-	=9-	=9-
!LO:TX:t=P:problem:kreska pseudotaktowa	!	!	!
1AA	2r	4.E\	.
.	.	8F\	.
.	4r	2E\	.
.	4A\	.	.
*custos:DD	*	*	*
!LO:LB:g=original	!	!	!
2DD/	4F\	1D	.
.	4D/	.	.
2.D/	4F\	.	.
.	4G\	.	.
=10-	=10-	=10-	=10-
*	*2\right	*	*
.	2A\	0r	.
4E\	.	.	.
4F\	2F\	.	.
!LO:TX:t=P:problem:kreska pseudotaktowa	!	!	!
4G\	.	.	.
2A\	4.E\	.	4r
.	.	.	4E\
.	8F\	.	.
4A\	2E\	.	4E\
4A\	.	.	4E\
=11-	=11-	=11-	=11-
2D/	1D	1r	4F\
.	.	.	8E\L
.	.	.	8F\J
!LO:TX:t=P:problem:kreska pseudotaktowa	!	!	!
2D/	.	.	8D\L
.	.	.	8E\
.	.	.	8F\
.	.	.	8G\J
2A\	0r	4r	2E\
.	.	4E\	.
4A\	.	4E\	2r
4A\	.	4E\	.
=12-	=12-	=12-	=12-
2D/	.	4F\	0r
.	.	8E\L	.
.	.	8F\J	.
!LO:TX:t=P:problem: ligatura od dołu i od góry	!	!	!
[[4D/	.	8D\L	.
.	.	8E\	.
!LO:TX:t=P:problem:kreska pseudotaktowa	!	!	!
4D/]]	.	8F\	.
.	.	8G\J	.
*	*	*custos:E	*
!	!	!LO:LB:g=original	!
2AA/	4r	2E\	.
.	4E\	.	.
4AA/	4E\	2r	.
4AA/	4E\	.	.
=13-	=13-	=13-	=13-
2D/	4F\	0r	1r
.	8E\L	.	.
.	8F\J	.	.
!LO:TX:t=P:problem:kreska pseudotaktowa	!	!	!
2D/	8D\L	.	.
.	8E\	.	.
.	8F\	.	.
.	8G\J	.	.
2A\	2E\	.	4r
.	.	.	8.A\L
.	.	.	16G\Jk
2D/	2r	.	8.F\L
.	.	.	16E\Jk
.	.	.	8.D/L
!	!	!	!LO:TX:t=P:problem:kreska pseudotaktowa
.	.	.	16C/Jk
*	*custos:A	*	*
!	!LO:LB:g=original	!	!
=14-	=14-	=14-	=14-
2GG/	0r	1r	4BB/
.	.	.	8.G\L
.	.	.	16F\Jk
8.C/L	.	.	8.E\L
16BB/Jk	.	.	16D\Jk
*	*	*	*custos:C
!	!	!	!LO:LB:g=original
8.AA/L	.	.	8.C/L
!LO:TX:t=P:problem:kreska pseudotaktowa	!	!	!
16GG/Jk	.	.	16BB/Jk
2AA/	.	4r	2AA/
.	.	8.A\L	.
.	.	16G\Jk	.
2D/	.	8.F\L	2r
.	.	16E\Jk	.
.	.	8.D/L	.
.	.	16Cny/Jk	.
=15-	=15-	=15-	=15-
2GG/	1r	4BB/	0r
.	.	8.G\L	.
.	.	16F\Jk	.
8.C/L	.	8.E\L	.
16BB/Jk	.	16D\Jk	.
8.AA/L	.	8.C/L	.
!LO:TX:t=P:problem:kreska pseudotaktowa	!	!	!
16GG/Jk	.	16BB/Jk	.
2AA/	4r	2AA/	.
.	8.A\L	.	.
.	16G\Jk	.	.
2D/	8.F\L	2r	.
.	16E\Jk	.	.
.	8.D/L	.	.
.	16C/Jk	.	.
*custos:G	*	*	*
!LO:LB:g=original	!	!	!
=16-	=16-	=16-	=16-
2GG/	4BB/	1r	1r
.	8.G\L	.	.
.	16F\Jk	.	.
8.C/L	8.E\L	.	.
16BB/Jk	16D\Jk	.	.
8.AA/L	8.C/L	.	.
!LO:TX:t=P:problem:kreska pseudotaktowa	!	!	!
16GG/Jk	16BB/Jk	.	.
4AA/	2AA/	2r	4r
4AA/	.	.	8.A\L
.	.	.	16G\Jk
4D/	2r	4r	8.F\L
.	.	.	16F\Jk
!LO:TX:t=P:problem: # below	!	!	!
4C#X/	.	8.A\L	8.E\L
!	!	!	!LO:TX:t=P:problem:kreska pseudotaktowa
.	.	16G\Jk	16E\Jk
=17-	=17-	=17-	=17-
4D/	4r	8.F\L	4D/
.	.	16F\Jk	.
4AA/	8.A\L	8.E\L	4r
.	16G\Jk	16E\Jk	.
4D/	8.F\L	4D/	8A\L
.	.	.	16F\L
.	16F\Jk	.	16G\JJ
!LO:TX:t=P:problem:kreska pseudotaktowa	!	!	!
4AA/	8.E\L	4r	8A\L
!	!	!	!LO:TX:t=P:problem:kreska pseudotaktowa
.	.	.	8G\J
!	!LO:TX:t=P:problem:kreska pseudotaktowa	!	!
.	16E\Jk	.	.
*	*	*custos:A	*
!	!	!LO:LB:g=original	!
4D/	4D/	8A\L	8F\L
.	.	16F\L	8D\J
.	.	16G\JJ	.
4AA/	4r	8A\L	4r
.	.	8G\	.
4D/	8A\L	8F\	2r
.	16F\L	8D\J	.
.	16G\JJ	.	.
*	*custos:A	*	*
!	!LO:LB:g=original	!	!
4AA/	8A\L	4r	.
!	!LO:TX:t=P:problem:kreska pseudotaktowa	!	!
.	8G\J	.	.
=18-	=18-	=18-	=18-
4D/	8F\L	2r	4r
.	8D\J	.	.
4GG/	4r	.	8.G\L
.	.	.	16F\Jk
!	!LO:TX:t=P:problem:kreska pseudotaktowa	!	!
4Cny/	2r	4r	8.E\L
.	.	.	16E\Jk
!LO:TX:t=P:problem:kreska pseudotaktowa	!	!	!
4GG/	.	8.G\L	8.D/L
!	!	!	!LO:TX:t=P:problem:kreska pseudotaktowa
.	.	16F\Jk	16D/Jk
4C/	4r	8.E\L	4C/
.	.	16E\Jk	.
4GG/	8.G\L	8.D/L	4r
.	16F\Jk	16D/Jk	.
4C/	8.E\L	4C/	8G\L
.	.	.	16E\L
.	16E\Jk	.	16F\JJ
4GG/	8.D/L	4r	8G\L
.	.	.	8F\J
!	!LO:TX:t=P:problem:kreska pseudotaktowa	!	!
.	16D/Jk	.	.
*	*	*	*custos:E
!	!	!	!LO:LB:g=original
=19-	=19-	=19-	=19-
4C/	4C/	8G\L	8E\L
.	.	16E\L	8C\J
.	.	16F\JJ	.
4GG/	4r	8G\L	4r
.	.	8F\J	.
4C/	8G\L	8E\L	2r
.	16E\L	8C\J	.
.	16F\JJ	.	.
!LO:TX:t=P:problem:kreska pseudotaktowa	!	!	!
4GG/	8G\L	4r	.
!	!LO:TX:t=P:problem:kreska pseudotaktowa	!	!
.	8F\J	.	.
4C/	8E\L	2r	4r
.	8C\J	.	.
4AA/	4r	.	8.E\L
.	.	.	16D\Jk
!	!LO:TX:t=P:problem:kreska pseudotaktowa	!	!
4AA/	2r	4r	8.C/L
.	.	.	16C/Jk
!LO:TX:t=P:problem:kreska pseudotaktowa	!	!	!
4EE/	.	8.E\L	8.BB/L
!	!	!	!LO:TX:t=P:problem:kreska pseudotaktowa
.	.	16D\Jk	16BB/Jk
=20-	=20-	=20-	=20-
4AA/	4r	8.C/L	4AA/
.	.	16C/Jk	.
*	*	*custos:BB	*
!	!	!LO:LB:g=original	!
4EE/	8.E\L	8.BB/L	4r
.	16D\Jk	16BB/Jk	.
4AA/	8.C/L	4AA/	8E/L
.	.	.	16C/L
.	16C/Jk	.	16D/JJ
*	*custos:BB	*	*
!LO:TX:t=P:problem:kreska pseudotaktowa	!LO:LB:g=original	!	!
4EE/	8.BB/L	4r	8E\L
!	!	!	!LO:TX:t=P:problem:kreska pseudotaktowa
.	.	.	8D\J
!	!LO:TX:t=P:problem:kreska pseudotaktowa	!	!
.	16BB/Jk	.	.
4AA/	4AA/	8E\L	8C/L
.	.	16C\L	8AA/J
.	.	16D\JJ	.
4EE/	4r	8E\L	4r
.	.	8D\J	.
4AA/	8E\L	8C/L	2r
.	16C\L	8AA/J	.
.	16D\JJ	.	.
4EE/	8E\L	4r	.
.	8D\J	.	.
=21-	=21-	=21-	=21-
4AA/	8C/L	2r	4r
.	8AA/J	.	.
4AA/	4r	.	8.A\L
.	.	.	16G\Jk
!	!LO:TX:t=P:problem:kreska pseudotaktowa	!	!
4D/	2r	4r	8.F\L
.	.	.	16F\Jk
!LO:TX:t=P:problem:kreska pseudotaktowa	!	!	!
4AA/	.	8.A\L	8.E\L
!	!	!	!LO:TX:t=P:problem:kreska pseudotaktowa
.	.	16G\Jk	16E\Jk
4D/	4r	8.F\L	4D/
.	.	16F\Jk	.
4AA/	8.A\L	8.E\L	4r
.	16G\Jk	16E\Jk	.
4D/	8.F\L	4D/	8A\L
.	.	.	16F\L
.	16F\Jk	.	16G\J
4AA/	8.E\L	4r	8A\
!	!	!	!LO:TX:t=P:problem:kreska pseudotaktowa
.	.	.	8G\J
!	!LO:TX:t=P:problem:kreska pseudotaktowa	!	!
.	16E\Jk	.	.
=22-	=22-	=22-	=22-
4D/	4D/	8A\L	8F\L
.	.	16F\L	8D\J
.	.	16G\JJ	.
4AA/	4r	8A\L	4r
.	.	8G\J	.
!	!	!	!LO:TX:t=P:problem:kreska pseudotaktowa
4D/	8A\L	8F\L	2r
.	16F\L	8D\J	.
.	16G\JJ	.	.
!LO:TX:t=P:problem:kreska pseudotaktowa	!	!	!
4AA/	8A\L	4r	.
!	!LO:TX:t=P:problem:kreska pseudotaktowa	!	!
.	8G\J	.	.
*custos:D	*	*	*
!LO:LB:g=original	!	!	!
2D/	8F\L	2r	4r
.	8D\J	.	.
.	4r	.	8.A\L
.	.	.	16G\Jk
!	!LO:TX:t=P:problem:kreska pseudotaktowa	!	!
2D/	2r	4r	8.F\L
.	.	.	16G\Jk
.	.	8.A\L	8.F\L
.	.	16G\Jk	16E\Jk
*	*custos:AA	*custos:F	*
!	!LO:LB:g=original	!LO:LB:g=original	!
=23-	=23-	=23-	=23-
4D/	4r	8.F\L	4D/
.	.	16F\Jk	.
4AA/	8.AA/L	8.E\L	4r
.	16GG/Jk	16E\Jk	.
1FF	1FF	4AA/	4r
.	.	8.A\L	8.c\L
!	!	!	!LO:TX:t=P:problem:kreska pseudotaktowa
.	.	16G\Jk	16B-Xi\Jk
.	.	8.F\L	8.A\L
.	.	16G\Jk	16B-Xi\Jk
.	.	8.F\L	8.A\L
.	.	16G\Jk	16B-Xi\Jk
!LO:TX:t=P:problem:kreska pseudotaktowa	!	!	!
2GG/	2BB/	8.E\L	8.G\L
.	.	16F\Jk	16A\Jk
.	.	8.D/L	8.F\L
!	!	!	!LO:TX:t=P:problem:kreska pseudotaktowa
.	.	16E/Jk	16G\Jk
=24-	=24-	=24-	=24-
0AA	0AA	2C#X/	4E\
.	.	.	8.A\L
.	.	.	16G\Jk
.	.	1D	8F\L
.	.	.	8E\
.	.	.	8F\
!	!	!	!LO:TX:t=P:problem:kreska pseudotaktowa
.	.	.	8D\J
.	.	.	8E\L
.	.	.	8A\
.	.	.	8A\
.	.	.	8A\J
.	.	2C#X/	8A\L
.	.	.	16G\L
.	.	.	16F\JJ
.	.	.	8E\L
.	.	.	16A\L
.	.	.	16G\JJ
=25-	=25-	=25-	=25-
!LO:TX:t=P:problem:kreska pseudotaktowa	!	!	!
1DD	1DD	1D	1F#X
2r	2r	2r	1r
2D/	2D/	2F\	.
=26-	=26-	=26-	=26-
1.D	1.D	1.F	2r
.	.	.	2A\
.	.	.	2.A\
!LO:TX:t=P:problem:kreska pseudotaktowa	!	!	!
2D/	2D/	2F\	.
.	.	.	4Bny\
=27-	=27-	=27-	=27-
2.AA/	2.AA/	2E\	2.c\
.	.	4Cny/	.
4BB/	4BB/	4D/	8B\L
.	.	.	8A\J
1C	1C	4E\	2.G\
.	.	4D/	.
.	.	4E\	.
.	.	4F\	4A\
*	*	*custos:G	*
!	!	!LO:LB:g=original	!
=28-	=28-	=28-	=28-
2.GG/	2.GG/	2G\	4B\
.	.	.	4A\
.	.	2.D/	4B\
4AA/	4AA/	.	4c\
4BB/	4BB/	.	1d
4C/	4C/	4E\	.
1D\	1D\	2F\	.
=29-	=29-	=29-	=29-
.	.	2E\	2.A\
!LO:TX:t=P:problem:kreska pseudotaktowa	!	!	!
2C#X/	2C#X/	2E\	.
.	.	.	4G\
2D/	2D/	4D/	4Fny\
.	.	4E\	4G\
1D\	1D\	4F\	2A\
.	.	4G\	.
=30-	=30-	=30-	=30-
.	.	2.E\	2r
4Cny/	4Cny/	.	2.A\
!LO:TX:t=P:problem:kreska pseudotaktowa	!	!	!
4BB/	4BB/	4D/	.
1.AA	0AA	2C#X/	.
.	.	.	4G\
.	.	1D	2F\
=31-	=31-	=31-	=31-
.	.	.	8E\L
.	.	.	8A\
.	.	.	8A\
.	.	.	8A\J
2AA/	.	2C#X/	8A\L
.	.	.	16G\L
.	.	.	16F\JJ
.	.	.	8E\L
.	.	.	16A\L
.	.	.	16G\JJ
*	*custos:D	*	*
!	!LO:LB:g=original	!LO:TX:t=P:problem:mixed beam	!
1D	1D	8D/L	2F#X\
.	.	8d\	.
.	.	8d\	.
.	.	8d\J	.
.	.	8d\L	2r
.	.	16c\L	.
.	.	16B\JJ	.
.	.	8A\L	.
.	.	16d\L	.
.	.	16c\JJ	.
=32-	=32-	=32-	=32-
!LO:TX:t=P:problem:kreska pseudotaktowa	!	!	!
1GG	8r	2B\	1r
.	8G\L	.	.
.	8G\	.	.
.	8G\J	.	.
.	8G\L	2r	.
.	16F\L	.	.
.	16E\JJ	.	.
.	8D\L	.	.
.	16G\L	.	.
.	16F\JJ	.	.
1C	2E\	1r	8r
.	.	.	8c\L
.	.	.	8c\
.	.	.	8c\J
.	2r	.	8c\L
.	.	.	16B-Xi\L
.	.	.	16A\JJ
.	.	.	8G\L
.	.	.	16c\L
!	!	!	!LO:TX:t=P:problem:kreska pseudotaktowa
.	.	.	16B-Xi\JJ
=33-	=33-	=33-	=33-
2.FF/	8r	8r	2A\
.	8A\L	8F\L	.
.	8A\	8F\	.
.	8A\J	8F\J	.
*	*	*custos:F	*
!	!	!LO:LB:g=original	!
.	8A\L	8F\L	2r
.	16B-X\L	16G\L	.
.	16A\JJ	16F\JJ	.
4GG/	8G\L	8E\L	.
.	8F\J	8D\J	.
!LO:TX:t=P:problem:kreska pseudotaktowa	!	!	!
1AA	4E\	4C#X/	8r
.	.	.	8A\L
.	2D/	4F\	8A\
.	.	.	8A\J
*	*	*	*custos:A
!	!	!	!LO:LB:g=original
.	.	2E\	8A\L
.	.	.	16G\L
.	.	.	16Fny\JJ
.	4C#X/	.	8E\L
.	.	.	16A\L
.	.	.	16G\JJ
=34-	=34-	=34-	=34-
!	!	!LO:TX:t=P:problem:mixed beam	!
1D	1D	8D/L	2F#Xi\
.	.	8d\	.
.	.	8d\	.
.	.	8d\J	.
.	.	8d\L	2r
.	.	16c\L	.
.	.	16B\JJ	.
.	.	8A\L	.
.	.	16d\L	.
.	.	16c\JJ	.
1GG	8r	2B\	1r
.	8G\L	.	.
.	8G\	.	.
.	8G\J	.	.
.	8G\L	2r	.
.	16F\L	.	.
.	16E\JJ	.	.
*	*custos:D	*	*
!	!LO:LB:g=original	!	!
.	8D\L	.	.
.	16G\L	.	.
!	!LO:TX:t=P:problem:kreska pseudotaktowa	!	!
.	16F\JJ	.	.
=35-	=35-	=35-	=35-
1C	2E\	1r	8r
.	.	.	8c\L
.	.	.	8c\
.	.	.	8c\J
.	2r	.	8c\L
.	.	.	16B-Xi\L
.	.	.	16A\JJ
.	.	.	8G\L
.	.	.	16c\L
!	!	!	!LO:TX:t=P:problem:kreska pseudotaktowa
.	.	.	16B-Xi\JJ
*custos:FF	*	*	*
!LO:LB:g=original	!	!	!
2.FF/	8r	8r	2A\
.	8A\L	8F\L	.
.	8A\	8F\	.
.	8A\J	8F\J	.
.	8A\L	8F\L	2r
.	16B-X\L	16G\L	.
.	16A\JJ	16F\JJ	.
4GG/	8G\L	8E\L	.
.	8F\J	8D\J	.
=36-	=36-	=36-	=36-
1AA	4E\	4C#X/	8r
.	.	.	8A\L
.	2D/	4F\	8A\
.	.	.	8A\J
.	.	2E\	8A\L
.	.	.	16G\L
.	.	.	16Fny\JJ
.	4C#X/	.	8E\L
.	.	.	16A\L
.	.	.	16G\JJ
1DD	1D	1D	1F#X
=37-	=37-	=37-	=37-
*M3/1	*M3/1	*M3/1	*M3/1
*met(3)	*met(3)	*met(3)	*met(3)
!	!	!LO:N:vis=1	!
2D/	1%3r	1.r	4.A\
.	.	.	8G\
2D/	.	.	4.A\
.	.	.	8Fny\
2AA/	.	.	4.E\
.	.	.	8F\
1D	.	4.A\	1D
.	.	8G\	.
.	.	4.A\	.
.	.	8F\	.
!LO:TX:t=P:problem:kreska pseudotaktowa	!	!	!
2AA/	.	4.E\	2r
.	.	8F\	.
=38-	=38-	=38-	=38-
1D	4.A\	1D	1.r
.	8G\	.	.
.	4.A\	.	.
.	8F\	.	.
2AA/	4.E\	2r	.
.	8F\	.	.
!	!	!LO:N:vis=1	!
1D	1D	1.r	4.F\
.	.	.	8E\
.	.	.	4D/
.	.	.	8C/L
.	.	.	8BB/
!LO:TX:t=P:problem:kreska pseudotaktowa	!	!	!
2AA/	2r	.	8AA/
.	.	.	8GG/
.	.	.	8FF/
.	.	.	8EE/J
*	*	*	*custos:DD
!	!	!	!LO:LB:g=original
=39-	=39-	=39-	=39-
!	!LO:N:vis=1	!	!
1D	1.r	4.F\	1DD
.	.	8E\	.
.	.	4D/	.
.	.	8Cny/L	.
.	.	8BB/	.
2AA/	.	8AA/	2r
.	.	8GG/	.
.	.	8FF/	.
.	.	8EE/J	.
!	!	!	!LO:N:vis=1
1D	4.F\	1DD	1.r
.	8E\	.	.
.	4D/	.	.
.	8Cny/L	.	.
.	8BB/J	.	.
!LO:TX:t=P:problem:kreska pseudotaktowa	!	!	!
2AA/	8AA/L	2r	.
.	8GG/	.	.
.	8FF/	.	.
.	8EE/J	.	.
*	*custos:DD	*	*
!	!LO:LB:g=original	!	!
=40-	=40-	=40-	=40-
!	!	!LO:N:vis=1	!
1.DD	1DD	1.r	4F\
.	.	.	8E\L
.	.	.	8F\
.	.	.	8D\
.	.	.	8E\
.	.	.	8F\
.	.	.	8G\J
.	2r	.	4A\
.	.	.	4D/
!	!LO:N:vis=1	!	!
1.DD	1.r	4F\	1d
.	.	8E\L	.
.	.	8F\J	.
.	.	8D\L	.
.	.	8E\	.
.	.	8F\	.
.	.	8G\J	.
.	.	4A\	2r
.	.	4D/	.
=41-	=41-	=41-	=41-
!LO:TX:t=P:problem:kreska pseudotaktowa	!	!	!LO:N:vis=1
1.DD	4F\	1d	1.r
.	8E\L	.	.
.	8F\J	.	.
.	8D\L	.	.
.	8E\	.	.
.	8F\	.	.
.	8G\J	.	.
.	4A\	2r	.
.	4D/	.	.
*	*	*custos:BB	*
!	!	!LO:LB:g=original	!
!	!	!LO:N:vis=1	!
1.GG	1d	1.r	4BB/
.	.	.	8AA/L
.	.	.	8BB/
.	.	.	8GG/
.	.	.	8AA/
.	.	.	8BB/
.	.	.	8C/J
.	2r	.	4D/
.	.	.	4GG/
=42-	=42-	=42-	=42-
!	!LO:N:vis=1	!	!
1.GG	1.r	4BB/	1G
.	.	8AA/L	.
.	.	8BB/J	.
.	.	8GG/L	.
.	.	8AA/	.
.	.	8BB/	.
.	.	8C/J	.
.	.	4D/	2r
.	.	4GG/	.
!LO:TX:t=P:problem:kreska pseudotaktowa	!	!	!LO:N:vis=1
1.GG	4BB/	1G	1.r
.	8AA/L	.	.
.	8BB/J	.	.
.	8GG/L	.	.
.	8AA/	.	.
.	8BB/	.	.
.	8C/J	.	.
.	4D/	2r	.
!	!LO:TX:t=P:problem:kreska pseudotaktowa	!	!
.	4GG/	.	.
=43-	=43-	=43-	=43-
!	!	!LO:N:vis=1	!
1.C	1G	1.r	4E\
.	.	.	8D\L
.	.	.	8E\J
.	.	.	8C/L
.	.	.	8D/
.	.	.	8E/
.	.	.	8F/J
.	2r	.	4G\
.	.	.	4C/
!	!LO:N:vis=1	!	!
1.C	1.r	4E\	1c
.	.	8D/L	.
.	.	8E/J	.
.	.	8C/L	.
.	.	8D/	.
.	.	8E/	.
.	.	8F/J	.
.	.	4G\	2r
.	.	4C/	.
=44-	=44-	=44-	=44-
!LO:TX:t=P:problem:kreska pseudotaktowa	!	!	!LO:N:vis=1
1.C	4E\	1c	1.r
.	8D\L	.	.
.	8E\J	.	.
.	8C/L	.	.
.	8D/	.	.
.	8E/	.	.
.	8F/J	.	.
.	4G\	2r	.
.	4C/	.	.
*	*custos:D	*	*
!	!LO:LB:g=original	!LO:N:vis=1	!
1.GG	1D	1.r	4BB/
.	.	.	8AA/L
.	.	.	8BB/J
.	.	.	8GG/L
.	.	.	8AA/
.	.	.	8BB/
.	.	.	8C/J
.	2r	.	4D/
.	.	.	4GG/
=45-	=45-	=45-	=45-
!	!LO:N:vis=1	!	!
1.GG	1.r	4BB/	1G
.	.	8AA/L	.
.	.	8BB/J	.
.	.	8GG/L	.
.	.	8AA/	.
.	.	8BB/	.
.	.	8C/J	.
.	.	4D/	2r
.	.	4GG/	.
!LO:TX:t=P:problem:kreska pseudotaktowa	!	!	!LO:N:vis=1
1.GG	4BB/	1G	1.r
.	8AA/L	.	.
.	8BB/J	.	.
.	8GG/L	.	.
.	8AA/	.	.
.	8BB/	.	.
.	8C/J	.	.
.	4D/	2r	.
!	!LO:TX:t=P:problem:kreska pseudotaktowa	!	!
.	4GG/	.	.
=46-	=46-	=46-	=46-
1D	2DD/	2D/	2F\
.	2DD/	2D/	2F\
2D/	2DD/	2D/	2F\
1.ryy	1.ryy	1.ryy	2ryy
.	.	.	1ryy
=47-	=47-	=47-	=47-
*M2/1	*M2/1	*M2/1	*M2/1
*met(C|)	*met(C|)	*met(C|)	*met(C|)
1AA	1AA	1C#X	1E
*custos:AA	*	*custos:C#	*
!LO:LB:g=original	!	!LO:LB:g=original	!
2AA/	2AA/	2C#/	4r
.	.	.	8.A\L
.	.	.	16G\Jk
4D/	4r	4r	8.F\L
.	.	.	16F\Jk
4AA/	8.A\L	4AA/	8.E\L
!	!LO:TX:t=P:problem:kreska pseudotaktowa	!	!LO:TX:t=P:problem:kreska pseudotaktowa
.	16G\Jk	.	16E\Jk
=48-	=48-	=48-	=48-
!	!LO:TX:t=P:problem:mixed beam	!	!
2D/	8F/L	4DD/	8D/
.	16FF/L	.	16DD/LL
.	16GG/	.	16EE/
.	16AA/	4DD/	16FF/
.	16BB/	.	16GG/
.	16C/	.	16AA/
.	16D/JJ	.	16BB/JJ
2AA/	8.E\L	4AA/	2C#X/
.	16G\Jk	.	.
*	*custos:F	*	*
!	!LO:LB:g=original	!	!
.	8.F\L	8.A\L	.
!	!LO:TX:t=P:problem:kreska pseudotaktowa	!	!
.	16E\Jk	16G\Jk	.
!	!	!LO:TX:t=P:problem:mixed beam	!
2D/	8D/	8F\L	2D/
.	16DD/LL	16FF/L	.
.	16EE/	16GG/	.
.	16FF/	16AA/	.
.	16GG/	16BB/	.
.	16AA/	16Cny/	.
.	16BB/JJ	16D/JJ	.
!LO:TX:t=P:problem:kreska pseudotaktowa	!LO:TX:t=P:problem:kreska pseudotaktowa	!	!
2AA/	2C#X/	8.E\L	4r
.	.	16G\Jk	.
.	.	8.F#X\L	8.A\L
!	!	!	!LO:TX:t=P:problem:kreska pseudotaktowa
.	.	16E\Jk	16G\Jk
=49-	=49-	=49-	=49-
!	!	!	!LO:TX:t=P:problem:mixed beam
2D/	2D/	8D/	8F/L
.	.	16DD/LL	16FF/L
.	.	16EE/	16GG/
.	.	16FF/	16AA/
.	.	16GG/	16BB/
.	.	16AA/	16Cny/
.	.	16BB/JJ	16D/JJ
*	*	*	*custos:E
!	!	!	!LO:LB:g=original
2AA/	4r	2C#X/	8.E\L
.	.	.	16G\Jk
.	8.A\L	.	8.F#X\L
!	!	!	!LO:TX:t=P:problem:kreska pseudotaktowa
.	16G\Jk	.	16E\Jk
!	!LO:TX:t=P:problem:mixed beam	!	!
2D/	8F/L	2D/	8D/
.	16FF/L	.	16DD/LL
.	16GG/	.	16EE/
.	16AA/	.	16FF/
.	16BB/	.	16GG/
.	16Cny/	.	16AA/
.	16D/JJ	.	16BB/JJ
!	!	!	!LO:TX:t=P:problem:kreska pseudotaktowa
4AA/	8.E\	4r	2C#X/
.	16G\	.	.
4AA/	8.F#X\	8.A\L	.
!	!LO:TX:t=P:problem:kreska pseudotaktowa	!	!
.	16E\	16G\Jk	.
*	*	*custos:F	*
!	!	!LO:LB:g=original	!
=50-	=50-	=50-	=50-
!	!LO:TX:t=P:problem:mixed beam	!LO:TX:t=P:problem:mixed beam	!
2D/	8D\L	8Fny\L	2D/
.	16DD/L	16FF/L	.
.	16EE/	16GG/	.
.	16FF/	16AA/	.
.	16GG/	16BB/	.
.	16AA/	16Cny/	.
!	!LO:TX:t=P:problem: # przed custosem	!	!
.	16BB/JJ	16D/JJ	.
*	*custos:C#	*	*
!	!LO:LB:g=original	!	!
4AA/	2C#X/	8.E\L	4r
.	.	16G\Jk	.
!LO:TX:t=P:problem:kreska pseudotaktowa	!	!	!
4AA/	.	8.F#X\L	8.A\L
!	!	!LO:TX:t=P:problem:kreska pseudotaktowa	!
.	.	16E\Jk	16G\Jk
0D	2D/	4D/	4Fny\
.	.	8.A\L	4E\
.	.	16G\Jk	.
.	2DD/	2F#\	1D
=51-	=51-	=51-	=51-
.	0AAl;;	0El;;	.
.	.	.	4C#X/
.	.	.	4BB/
1AAl;;	.	.	1C#Xl
==	==	==	==
*-	*-	*-	*-
!!!system-decoration: [(s1,s2,s3)]s4
!!!RDF**kern: i = editorial accidental
!!!RDF**kern: l = terminal long
!!!ENC: Andrzej Gręziak
!!!END: 2022-11-07
!!!ENC: Natalia Wrzos
!!!END: 2022-11-26
!!!YEC: Copyright 2022 Narodowy Instytut Fryderyka Chopina (https://polishscores.org)
!!!YEM: License CC-BY-4.0 (https://creativecommons.org/licenses/by/4.0)
